src/components/logos/BuffaloFish.svg

<svg xmlns="http://www.w3.org/2000/svg" viewBox="0 0 400 288.16">
  <g fill-rule="evenodd">
    <path d="M51.663 97.201c-8.563.972-13.348 4.142-14.66 9.711-.434 1.84-.433 45.873.001 47.714 1.613 6.845 9.037 10.305 21.103 9.836 9.105-.354 14.501-2.979 16.536-8.045.826-2.057.89-3.022.83-12.532l-.057-8.944-.625-1.269c-1.253-2.544-5.298-4.785-8.885-4.923-.314-.012.055-.136.821-.276 4.745-.867 7.228-2.969 8.138-6.891.557-2.401.297-13.776-.36-15.748-2.221-6.672-10.975-9.98-22.842-8.633m164.885-.074c-9.281 1.076-14.993 4.718-16.179 10.315-.222 1.047-.268 5.813-.271 28.221l-.003 26.962h15.407V137.328H224.251V162.625h15.417l-.054-27.437c-.06-30.341.029-28.167-1.239-30.385-3.091-5.41-12.581-8.747-21.827-7.676M81.077 126.153c.056 24.898.089 27.349.384 28.435 1.885 6.946 8.067 9.941 20.013 9.696 10.641-.217 15.831-2.982 17.643-9.398l.419-1.486.058-27.247.058-27.247h-15.23l-.001 27.152c0 17.232-.069 27.398-.188 27.826-.771 2.775-6.053 3.183-7.371.569l-.428-.848V98.906H81.015l.062 27.247m44.648 4.613v31.859h15.407v-29.862h16.928V124.204h-16.928v-16.548H158.631v-8.75h-32.906v31.86m37.28 0v31.859h15.407v-29.862h16.928V124.204h-16.928v-16.548H195.911v-8.75h-32.906v31.86m-104.088-24.98c.637.327 1.042.713 1.378 1.309l.475.846v6.562c0 8.075-.164 8.758-2.398 9.983-.968.53-1.172.566-3.641.637l-2.615.075v-8.616c0-9.54.023-9.731 1.289-10.56 1.454-.953 3.91-1.058 5.512-.236m162.785-.323c1.02.303 2.013 1.175 2.347 2.062.134.354.202 4.079.202 10.985v10.449h-8.767l.056-10.509c.057-10.5.057-10.51.487-11.315.89-1.665 3.303-2.376 5.675-1.672M57.49 132.844c1.88.671 2.889 2.169 3.206 4.763.401 3.277.14 15.661-.351 16.649-1.414 2.848-6.917 2.676-8.026-.25-.135-.356-.203-4.045-.203-10.985v-10.448l2.33.008c1.444.005 2.602.105 3.044.263m263.385 37.397c-7.336.472-11.653 2.535-13.573 6.486-1.144 2.353-1.297 3.644-1.226 10.364.102 9.708.032 9.599 12.616 19.797 9.721 7.878 9.696 7.838 9.57 15.645-.062 3.764-.083 3.954-.55 4.862-1.531 2.98-7.087 2.548-7.967-.619-.12-.433-.2-3.187-.2-6.947l-.001-6.229H305.235l.091 6.514c.122 8.684.55 10.32 3.448 13.174 5.92 5.832 25.115 5.883 31.079.084 2.6-2.529 2.8-3.404 2.8-12.259 0-11.924.095-11.755-12.135-21.557-10.842-8.689-10.09-7.673-10.179-13.752-.094-6.34.521-7.413 4.245-7.413 3.895 0 4.47 1.116 4.47 8.684v4.841h14.075v-5.143c0-7.504-.551-9.544-3.308-12.262-2.668-2.629-6.196-3.871-12.151-4.278-2.96-.202-3.554-.201-6.795.008m28.15 33.563v31.859H364.242v-30.432h8.369v30.432h15.406v-63.718h-15.406v24.346h-8.369v-24.346H349.025v31.859" fill="#74bceb"/>
    <path d="M155.435 18.823c-3.766 1.018-6.7 3.794-8.15 7.711-.335.904-.357 2.263-.447 27.484l-.096 26.534-.417 1.093c-2.912 7.629-13.039 8.13-16.499.816-.786-1.661-.858-2.398-.866-8.852-.011-8.585-.415-10.144-3.408-13.146-6.074-6.093-16.273-3.585-18.974 4.667-.498 1.521-.504 1.611-.616 8.764l-.113 7.228-.617 1.303c-2.676 5.65-9.391 7.12-13.921 3.047-2.454-2.206-2.892-3.427-3.061-8.534-.293-8.899-4.743-13.794-12.147-13.364-6.809.395-10.851 5.406-10.86 13.466-.005 5.181-1.299 7.847-4.669 9.627-2.11 1.115-1.701 1.081-14.83 1.203-12.089.113-12.181.116-13.357.55-3.721 1.373-6.573 4.657-7.375 8.489-.419 2.004-.419 81.116 0 83.12.814 3.893 3.657 7.108 7.513 8.494l1.236.445 69.758.049c60.916.043 69.757.084 69.757.326 0 .807.876 2.486 1.841 3.528 3.912 4.225 10.953 2.749 12.623-2.648l.328-1.061 2.067-.243c5.751-.673 9.026-2.315 15.707-7.872 9.524-7.923 18.805-8.854 25.188-2.527 8.182 8.11 2.644 22.043-9.01 22.666l-1.945.105-.052-3.742-.052-3.742-7.007 4.842c-3.854 2.663-7.06 4.894-7.125 4.959-.315.315 18.691-.005 19.839-.334 17.419-4.989 14.543-30.547-3.519-31.269-6.769-.271-11.263 1.535-18.38 7.382-5.969 4.904-8.939 6.398-13.93 7.005-1.701.207-1.927.167-1.927-.336 0-.664-1.151-2.719-1.996-3.563-3.941-3.942-11.07-2.105-12.494 3.219l-.235.879h-68.964c-60.518 0-69.099-.035-70.055-.284-3.039-.792-5.289-2.853-6.455-5.913l-.429-1.126-.055-39.753c-.065-46.691-.245-43.391 2.525-46.295 2.673-2.803 3.072-2.872 16.638-2.876 14.066-.004 14.809-.142 17.985-3.321 2.575-2.577 3.129-4.161 3.33-9.515.197-5.216.643-6.589 2.858-8.784 4.256-4.22 11.096-3.216 13.961 2.048.846 1.554 1.051 2.66 1.055 5.69.007 5.338.859 7.861 3.567 10.56 6.374 6.355 17.343 3.007 19.15-5.844.235-1.153.299-2.777.301-7.608.003-7.816.324-9.098 2.87-11.456 4.858-4.497 12.159-2.672 14.468 3.617.388 1.056.42 1.571.533 8.354.104 6.287.164 7.351.462 8.178 3.926 10.889 19.162 10.481 21.993-.588.365-1.428.376-2.198.376-26.937 0-28.25-.055-26.976 1.248-29.185 3.938-6.68 13.12-5.823 16.126 1.505l.41.997.095 26.534.095 26.533.519 1.422c3.717 10.184 17.906 10.277 21.667.142l.439-1.183.104-16.929c.104-16.927.104-16.928.528-18.054 3.199-8.485 14.808-8.082 17.068.592.24.923.284 3.505.287 16.884.003 17.678-.023 17.273 1.336 20.032 3.396 6.89 12.833 8.389 18.247 2.9 2.503-2.538 3.157-4.483 3.297-9.8.08-3.022.161-3.798.495-4.74 2.79-7.873 12.979-8.564 16.518-1.12l.706 1.485.125 3.995c.177 5.615.903 7.687 3.614 10.307 6.476 6.257 17.289 2.926 19.079-5.877.234-1.152.298-2.784.298-7.621 0-7.771.331-9.09 2.873-11.443 4.951-4.584 12.572-2.51 14.634 3.982.168.528.281 3.007.368 8.084.156 9.122.657 10.776 4.102 13.561 3.128 2.528 3.592 2.598 17.3 2.605 9.11.005 11.414.057 12.243.277 2.995.798 5.117 2.717 6.32 5.716l.458 1.141.095 28.626.095 28.625.445 1.237c1.034 2.876 3.068 5.216 5.632 6.48 2.79 1.375 1.397 1.311 28.833 1.315 26.932.003 25.696-.046 27.843 1.102 2.106 1.126 3.99 3.649 4.475 5.992.144.697.19 13.059.155 41.506l-.051 40.514-.447 1.108c-.962 2.386-3.153 4.505-5.544 5.364-1.028.368-1.759.376-40.752.425l-39.705.05V253.543H279.22v2.092l-14.693.008c-11.777.007-14.835.059-15.407.263-3.883 1.386-4.187 8.248-.455 10.244l.788.422 14.884.054 14.883.054V268.569h31.764V262.292h39.618c43.91 0 40.5.1 43.303-1.269 2.674-1.306 5.022-4.233 5.793-7.223.454-1.757.462-82.304.008-84.044-.915-3.515-3.55-6.44-7.071-7.851l-1.289-.517-25.773-.096-25.773-.096-1.126-.428c-3.15-1.196-5.419-3.794-6.002-6.872-.127-.667-.195-10.621-.195-28.547 0-26.887-.008-27.557-.379-29.008-1.024-4.003-4.2-7.144-8.267-8.178-.948-.241-2.956-.289-12.268-.292-13.611-.004-14.074-.072-16.604-2.438-2.735-2.556-2.863-3.069-3.002-12.014-.107-6.851-.141-7.394-.521-8.421-3.248-8.782-13.927-10.73-19.841-3.619-2.135 2.566-2.454 4.03-2.462 11.272-.007 6.991-.131 8.175-1.054 10.053-3.361 6.833-12.69 6.637-16.029-.337l-.679-1.418-.137-4.003c-.194-5.691-.768-7.393-3.381-10.016-6.211-6.235-16.508-3.561-19.132 4.967-.231.75-.364 2.18-.469 5.041-.188 5.106-.542 6.142-2.855 8.349-5.158 4.92-13.671 1.913-14.832-5.238-.123-.76-.197-7.035-.197-16.909-.002-13.534-.042-15.855-.295-16.826-2.55-9.789-15.603-11.606-20.873-2.905-1.644 2.714-1.545 1.494-1.657 20.5-.108 18.269-.035 17.04-1.142 19.208-3.201 6.275-12.527 6.01-15.692-.446-1.071-2.183-1.047-1.507-1.047-28.839 0-24.714-.01-25.472-.376-26.902-1.536-6.005-7.884-9.721-13.851-8.107m141.664 78.296c-3.048.364-4.065.534-5.671.949-5.135 1.324-8.394 4.114-9.721 8.321l-.49 1.552v22.539c0 21.079.023 22.635.344 24.006 1.602 6.826 7.805 9.962 19.628 9.923 11.29-.037 17.163-3.049 19.053-9.773.528-1.879.539-45.801.012-47.741-1.412-5.192-5.323-8.119-12.598-9.427-1.649-.296-8.97-.538-10.557-.349m-51.355 33.647v31.859l12.982-.001c7.139 0 14.714-.056 16.833-.125l3.851-.125v-8.689h-18.259V98.906h-15.407v31.86m57.77-24.987c.661.328 1.038.683 1.384 1.306l.475.856v45.649l-.52.885c-1.558 2.65-6.868 2.336-7.931-.469-.336-.887-.279-45.804.059-46.594.867-2.027 4.106-2.837 6.533-1.633m-57.389 98.025v31.859h15.406v-29.862h16.928V197.242h-16.928v-16.358H279.03v-8.939h-32.905v31.859m37.85 0v31.859H299.192v-63.718H283.975v31.859m-101.447-20.539c3.231 1.328 4.049 5.592 1.552 8.09-3.077 3.077-8.334.849-8.325-3.528.007-3.52 3.532-5.895 6.773-4.562m125.984 77.886v4.945H281.883v-9.891H308.512v4.946m-50.595-.095v2.948h-8.018l-.556-.556c-.799-.799-.845-3.636-.074-4.553.614-.729.627-.731 4.987-.762l3.661-.026v2.949m21.303 0v2.948h-18.83v-5.897h18.83v2.949" fill="#171217"/>
  </g>
</svg>

<svg id="svg" version="1.1" xmlns="http://www.w3.org/2000/svg" xmlns:xlink="http://www.w3.org/1999/xlink" width="400" height="288.15977175463627" viewBox="0, 0, 400,288.15977175463627">
	<title>buffaLOFIsh Logo</title>
	<g id="svgg">
		<path id="path0" d="M51.663 97.201 C 43.100 98.173,38.315 101.343,37.003 106.912 C 36.569 108.752,36.570 152.785,37.004 154.626 C 38.617 161.471,46.041 164.931,58.107 164.462 C 67.212 164.108,72.608 161.483,74.643 156.417 C 75.469 154.360,75.533 153.395,75.473 143.885 L 75.416 134.941 74.791 133.672 C 73.538 131.128,69.493 128.887,65.906 128.749 C 65.592 128.737,65.961 128.613,66.727 128.473 C 71.472 127.606,73.955 125.504,74.865 121.582 C 75.422 119.181,75.162 107.806,74.505 105.834 C 72.284 99.162,63.530 95.854,51.663 97.201 M216.548 97.127 C 207.267 98.203,201.555 101.845,200.369 107.442 C 200.147 108.489,200.101 113.255,200.098 135.663 L 200.095 162.625 207.798 162.625 L 215.502 162.625 215.502 149.976 L 215.502 137.328 219.876 137.328 L 224.251 137.328 224.251 149.976 L 224.251 162.625 231.959 162.625 L 239.668 162.625 239.614 135.188 C 239.554 104.847,239.643 107.021,238.375 104.803 C 235.284 99.393,225.794 96.056,216.548 97.127 M81.077 126.153 C 81.133 151.051,81.166 153.502,81.461 154.588 C 83.346 161.534,89.528 164.529,101.474 164.284 C 112.115 164.067,117.305 161.302,119.117 154.886 L 119.536 153.400 119.594 126.153 L 119.652 98.906 112.037 98.906 L 104.422 98.906 104.421 126.058 C 104.421 143.290,104.352 153.456,104.233 153.884 C 103.462 156.659,98.180 157.067,96.862 154.453 L 96.434 153.605 96.434 126.255 L 96.434 98.906 88.724 98.906 L 81.015 98.906 81.077 126.153 M125.725 130.766 L 125.725 162.625 133.428 162.625 L 141.132 162.625 141.132 147.694 L 141.132 132.763 149.596 132.763 L 158.060 132.763 158.060 128.483 L 158.060 124.204 149.596 124.204 L 141.132 124.204 141.132 115.930 L 141.132 107.656 149.881 107.656 L 158.631 107.656 158.631 103.281 L 158.631 98.906 142.178 98.906 L 125.725 98.906 125.725 130.766 M163.005 130.766 L 163.005 162.625 170.709 162.625 L 178.412 162.625 178.412 147.694 L 178.412 132.763 186.876 132.763 L 195.340 132.763 195.340 128.483 L 195.340 124.204 186.876 124.204 L 178.412 124.204 178.412 115.930 L 178.412 107.656 187.161 107.656 L 195.911 107.656 195.911 103.281 L 195.911 98.906 179.458 98.906 L 163.005 98.906 163.005 130.766 M58.917 105.786 C 59.554 106.113,59.959 106.499,60.295 107.095 L 60.770 107.941 60.770 114.503 C 60.770 122.578,60.606 123.261,58.372 124.486 C 57.404 125.016,57.200 125.052,54.731 125.123 L 52.116 125.198 52.116 116.582 C 52.116 107.042,52.139 106.851,53.405 106.022 C 54.859 105.069,57.315 104.964,58.917 105.786 M221.702 105.463 C 222.722 105.766,223.715 106.638,224.049 107.525 C 224.183 107.879,224.251 111.604,224.251 118.510 L 224.251 128.959 219.867 128.959 L 215.484 128.959 215.540 118.450 C 215.597 107.950,215.597 107.940,216.027 107.135 C 216.917 105.470,219.330 104.759,221.702 105.463 M57.490 132.844 C 59.370 133.515,60.379 135.013,60.696 137.607 C 61.097 140.884,60.836 153.268,60.345 154.256 C 58.931 157.104,53.428 156.932,52.319 154.006 C 52.184 153.650,52.116 149.961,52.116 143.021 L 52.116 132.573 54.446 132.581 C 55.890 132.586,57.048 132.686,57.490 132.844 M320.875 170.241 C 313.539 170.713,309.222 172.776,307.302 176.727 C 306.158 179.080,306.005 180.371,306.076 187.091 C 306.178 196.799,306.108 196.690,318.692 206.888 C 328.413 214.766,328.388 214.726,328.262 222.533 C 328.200 226.297,328.179 226.487,327.712 227.395 C 326.181 230.375,320.625 229.943,319.745 226.776 C 319.625 226.343,319.545 223.589,319.545 219.829 L 319.544 213.600 312.389 213.600 L 305.235 213.600 305.326 220.114 C 305.448 228.798,305.876 230.434,308.774 233.288 C 314.694 239.120,333.889 239.171,339.853 233.372 C 342.453 230.843,342.653 229.968,342.653 221.113 C 342.653 209.189,342.748 209.358,330.518 199.556 C 319.676 190.867,320.428 191.883,320.339 185.804 C 320.245 179.464,320.860 178.391,324.584 178.391 C 328.479 178.391,329.054 179.507,329.054 187.075 L 329.054 191.916 336.091 191.916 L 343.129 191.916 343.129 186.773 C 343.129 179.269,342.578 177.229,339.821 174.511 C 337.153 171.882,333.625 170.640,327.670 170.233 C 324.710 170.031,324.116 170.032,320.875 170.241 M349.025 203.804 L 349.025 235.663 356.633 235.663 L 364.242 235.663 364.242 220.447 L 364.242 205.231 368.426 205.231 L 372.611 205.231 372.611 220.447 L 372.611 235.663 380.314 235.663 L 388.017 235.663 388.017 203.804 L 388.017 171.945 380.314 171.945 L 372.611 171.945 372.611 184.118 L 372.611 196.291 368.426 196.291 L 364.242 196.291 364.242 184.118 L 364.242 171.945 356.633 171.945 L 349.025 171.945 349.025 203.804 " stroke="none" fill="#74bceb" fill-rule="evenodd"></path>
		<path id="path1" d="M155.435 18.823 C 151.669 19.841,148.735 22.617,147.285 26.534 C 146.950 27.438,146.928 28.797,146.838 54.018 L 146.742 80.552 146.325 81.645 C 143.413 89.274,133.286 89.775,129.826 82.461 C 129.040 80.800,128.968 80.063,128.960 73.609 C 128.949 65.024,128.545 63.465,125.552 60.463 C 119.478 54.370,109.279 56.878,106.578 65.130 C 106.080 66.651,106.074 66.741,105.962 73.894 L 105.849 81.122 105.232 82.425 C 102.556 88.075,95.841 89.545,91.311 85.472 C 88.857 83.266,88.419 82.045,88.250 76.938 C 87.957 68.039,83.507 63.144,76.103 63.574 C 69.294 63.969,65.252 68.980,65.243 77.040 C 65.238 82.221,63.944 84.887,60.574 86.667 C 58.464 87.782,58.873 87.748,45.744 87.870 C 33.655 87.983,33.563 87.986,32.387 88.420 C 28.666 89.793,25.814 93.077,25.012 96.909 C 24.593 98.913,24.593 178.025,25.012 180.029 C 25.826 183.922,28.669 187.137,32.525 188.523 L 33.761 188.968 103.519 189.017 C 164.435 189.060,173.276 189.101,173.276 189.343 C 173.276 190.150,174.152 191.829,175.117 192.871 C 179.029 197.096,186.070 195.620,187.740 190.223 L 188.068 189.162 190.135 188.919 C 195.886 188.246,199.161 186.604,205.842 181.047 C 215.366 173.124,224.647 172.193,231.030 178.520 C 239.212 186.630,233.674 200.563,222.020 201.186 L 220.075 201.291 220.023 197.549 L 219.971 193.807 212.964 198.649 C 209.110 201.312,205.904 203.543,205.839 203.608 C 205.524 203.923,224.530 203.603,225.678 203.274 C 243.097 198.285,240.221 172.727,222.159 172.005 C 215.390 171.734,210.896 173.540,203.779 179.387 C 197.810 184.291,194.840 185.785,189.849 186.392 C 188.148 186.599,187.922 186.559,187.922 186.056 C 187.922 185.392,186.771 183.337,185.926 182.493 C 181.985 178.551,174.856 180.388,173.432 185.712 L 173.197 186.591 104.233 186.591 C 43.715 186.591,35.134 186.556,34.178 186.307 C 31.139 185.515,28.889 183.454,27.723 180.394 L 27.294 179.268 27.239 139.515 C 27.174 92.824,26.994 96.124,29.764 93.220 C 32.437 90.417,32.836 90.348,46.402 90.344 C 60.468 90.340,61.211 90.202,64.387 87.023 C 66.962 84.446,67.516 82.862,67.717 77.508 C 67.914 72.292,68.360 70.919,70.575 68.724 C 74.831 64.504,81.671 65.508,84.536 70.772 C 85.382 72.326,85.587 73.432,85.591 76.462 C 85.598 81.800,86.450 84.323,89.158 87.022 C 95.532 93.377,106.501 90.029,108.308 81.178 C 108.543 80.025,108.607 78.401,108.609 73.570 C 108.612 65.754,108.933 64.472,111.479 62.114 C 116.337 57.617,123.638 59.442,125.947 65.731 C 126.335 66.787,126.367 67.302,126.480 74.085 C 126.584 80.372,126.644 81.436,126.942 82.263 C 130.868 93.152,146.104 92.744,148.935 81.675 C 149.300 80.247,149.311 79.477,149.311 54.738 C 149.311 26.488,149.256 27.762,150.559 25.553 C 154.497 18.873,163.679 19.730,166.685 27.058 L 167.095 28.055 167.190 54.589 L 167.285 81.122 167.804 82.544 C 171.521 92.728,185.710 92.821,189.471 82.686 L 189.910 81.503 190.014 64.574 C 190.118 47.647,190.118 47.646,190.542 46.520 C 193.741 38.035,205.350 38.438,207.610 47.112 C 207.850 48.035,207.894 50.617,207.897 63.996 C 207.900 81.674,207.874 81.269,209.233 84.028 C 212.629 90.918,222.066 92.417,227.480 86.928 C 229.983 84.390,230.637 82.445,230.777 77.128 C 230.857 74.106,230.938 73.330,231.272 72.388 C 234.062 64.515,244.251 63.824,247.790 71.268 L 248.496 72.753 248.621 76.748 C 248.798 82.363,249.524 84.435,252.235 87.055 C 258.711 93.312,269.524 89.981,271.314 81.178 C 271.548 80.026,271.612 78.394,271.612 73.557 C 271.612 65.786,271.943 64.467,274.485 62.114 C 279.436 57.530,287.057 59.604,289.119 66.096 C 289.287 66.624,289.400 69.103,289.487 74.180 C 289.643 83.302,290.144 84.956,293.589 87.741 C 296.717 90.269,297.181 90.339,310.889 90.346 C 319.999 90.351,322.303 90.403,323.132 90.623 C 326.127 91.421,328.249 93.340,329.452 96.339 L 329.910 97.480 330.005 126.106 L 330.100 154.731 330.545 155.968 C 331.579 158.844,333.613 161.184,336.177 162.448 C 338.967 163.823,337.574 163.759,365.010 163.763 C 391.942 163.766,390.706 163.717,392.853 164.865 C 394.959 165.991,396.843 168.514,397.328 170.857 C 397.472 171.554,397.518 183.916,397.483 212.363 L 397.432 252.877 396.985 253.985 C 396.023 256.371,393.832 258.490,391.441 259.349 C 390.413 259.717,389.682 259.725,350.689 259.774 L 310.984 259.824 310.984 256.683 L 310.984 253.543 295.102 253.543 L 279.220 253.543 279.220 254.589 L 279.220 255.635 264.527 255.643 C 252.750 255.650,249.692 255.702,249.120 255.906 C 245.237 257.292,244.933 264.154,248.665 266.150 L 249.453 266.572 264.337 266.626 L 279.220 266.680 279.220 267.624 L 279.220 268.569 295.102 268.569 L 310.984 268.569 310.984 265.430 L 310.984 262.292 350.602 262.292 C 394.512 262.292,391.102 262.392,393.905 261.023 C 396.579 259.717,398.927 256.790,399.698 253.800 C 400.152 252.043,400.160 171.496,399.706 169.756 C 398.791 166.241,396.156 163.316,392.635 161.905 L 391.346 161.388 365.573 161.292 L 339.800 161.196 338.674 160.768 C 335.524 159.572,333.255 156.974,332.672 153.896 C 332.545 153.229,332.477 143.275,332.477 125.349 C 332.477 98.462,332.469 97.792,332.098 96.341 C 331.074 92.338,327.898 89.197,323.831 88.163 C 322.883 87.922,320.875 87.874,311.563 87.871 C 297.952 87.867,297.489 87.799,294.959 85.433 C 292.224 82.877,292.096 82.364,291.957 73.419 C 291.850 66.568,291.816 66.025,291.436 64.998 C 288.188 56.216,277.509 54.268,271.595 61.379 C 269.460 63.945,269.141 65.409,269.133 72.651 C 269.126 79.642,269.002 80.826,268.079 82.704 C 264.718 89.537,255.389 89.341,252.050 82.367 L 251.371 80.949 251.234 76.946 C 251.040 71.255,250.466 69.553,247.853 66.930 C 241.642 60.695,231.345 63.369,228.721 71.897 C 228.490 72.647,228.357 74.077,228.252 76.938 C 228.064 82.044,227.710 83.080,225.397 85.287 C 220.239 90.207,211.726 87.200,210.565 80.049 C 210.442 79.289,210.368 73.014,210.368 63.140 C 210.366 49.606,210.326 47.285,210.073 46.314 C 207.523 36.525,194.470 34.708,189.200 43.409 C 187.556 46.123,187.655 44.903,187.543 63.909 C 187.435 82.178,187.508 80.949,186.401 83.117 C 183.200 89.392,173.874 89.127,170.709 82.671 C 169.638 80.488,169.662 81.164,169.662 53.832 C 169.662 29.118,169.652 28.360,169.286 26.930 C 167.750 20.925,161.402 17.209,155.435 18.823 M297.099 97.119 C 294.051 97.483,293.034 97.653,291.428 98.068 C 286.293 99.392,283.034 102.182,281.707 106.389 L 281.217 107.941 281.217 130.480 C 281.217 151.559,281.240 153.115,281.561 154.486 C 283.163 161.312,289.366 164.448,301.189 164.409 C 312.479 164.372,318.352 161.360,320.242 154.636 C 320.770 152.757,320.781 108.835,320.254 106.895 C 318.842 101.703,314.931 98.776,307.656 97.468 C 306.007 97.172,298.686 96.930,297.099 97.119 M245.744 130.766 L 245.744 162.625 258.726 162.624 C 265.865 162.624,273.440 162.568,275.559 162.499 L 279.410 162.374 279.410 158.030 L 279.410 153.685 270.281 153.685 L 261.151 153.685 261.151 126.296 L 261.151 98.906 253.447 98.906 L 245.744 98.906 245.744 130.766 M303.514 105.779 C 304.175 106.107,304.552 106.462,304.898 107.085 L 305.373 107.941 305.373 130.766 L 305.373 153.590 304.853 154.475 C 303.295 157.125,297.985 156.811,296.922 154.006 C 296.586 153.119,296.643 108.202,296.981 107.412 C 297.848 105.385,301.087 104.575,303.514 105.779 M246.125 203.804 L 246.125 235.663 253.828 235.663 L 261.531 235.663 261.531 220.732 L 261.531 205.801 269.995 205.801 L 278.459 205.801 278.459 201.522 L 278.459 197.242 269.995 197.242 L 261.531 197.242 261.531 189.063 L 261.531 180.884 270.281 180.884 L 279.030 180.884 279.030 176.415 L 279.030 171.945 262.577 171.945 L 246.125 171.945 246.125 203.804 M283.975 203.804 L 283.975 235.663 291.583 235.663 L 299.192 235.663 299.192 203.804 L 299.192 171.945 291.583 171.945 L 283.975 171.945 283.975 203.804 M182.528 183.265 C 185.759 184.593,186.577 188.857,184.080 191.355 C 181.003 194.432,175.746 192.204,175.755 187.827 C 175.762 184.307,179.287 181.932,182.528 183.265 M308.512 261.151 L 308.512 266.096 295.197 266.096 L 281.883 266.096 281.883 261.151 L 281.883 256.205 295.197 256.205 L 308.512 256.205 308.512 261.151 M257.917 261.056 L 257.917 264.004 253.908 264.004 L 249.899 264.004 249.343 263.448 C 248.544 262.649,248.498 259.812,249.269 258.895 C 249.883 258.166,249.896 258.164,254.256 258.133 L 257.917 258.107 257.917 261.056 M279.220 261.056 L 279.220 264.004 269.805 264.004 L 260.390 264.004 260.390 261.056 L 260.390 258.107 269.805 258.107 L 279.220 258.107 279.220 261.056 " stroke="none" fill="#171217" fill-rule="evenodd"></path>
		<path id="path2" d="" stroke="none" fill="#3cc0b0" fill-rule="evenodd"></path>
		<path id="path3" d="" stroke="none" fill="#3cc0b0" fill-rule="evenodd"></path>
		<path id="path4" d="" stroke="none" fill="#3cc0b0" fill-rule="evenodd"></path>
	</g>
</svg>
